!!!!SEGMENT: pl-cz--iii-197--005_elsner-jozef-missa-c-op-22-offertorio.krn
!!!id: 18xx:264
!!!COM: Elsner, Józef
!!!OTL: Missa C op. 22 - Offertorio
!!!PDT:
!!!SMS-siglum: PL-CZ
!!!SMS-shelfmark: III-197
!!!NIFC-rismID:
!!!URL-scan: http://repozytorium.nifc.pl/skany/pl-cz-nut--iii-197
!!!ONB-nifc: UWAGA: części Mszy: Kyrie, Gloria, Graduale, Credo, Offertorio, Sanctus, Benedictus, Agnus
!!!ENC: Anna Matuszewska
!!!END: 2020-06-18
**kern	**kern	**text	**kern	**text	**kern	**text	**kern	**text	**kern	**kern	**kern	**kern	**kern	**kern	**kern
*part12	*part11	*part11	*part10	*part10	*part9	*part9	*part8	*part8	*part7	*part6	*part5	*part4	*part3	*part2	*part1
*staff12	*staff11	*staff11	*staff10	*staff10	*staff9	*staff9	*staff8	*staff8	*staff7	*staff6	*staff5	*staff4	*staff3	*staff2	*staff1
*group4	*group3	*	*group3	*	*group3	*	*group3	*	*group2	*group1	*group1	*group1	*group1	*group1	*group1
*I"Baſso.	*I"Baſso 2do	*	*I"Baſso 1mo	*	*I"Tenore 2do	*	*I"Tenore 1mo	*	*I"Tympano in C. G.	*I"Clarino 2do in. C.	*I"Clarino 1mo in C.	*I"Corno 2do in C.	*I"Corno 1mo in C.	*I"Corno 2do in F.	*I"Corno 1mo in F.
*I'b	*I'B II	*	*I'B I	*	*I'T II	*	*I'T I	*	*I'timp	*I'clno II in C	*I'clno I in C	*I'cor II in C	*I'cor I in C	*I'cor II in F	*I'cor I in F
*clefF4	*clefF4	*	*clefF4	*	*clefC4	*	*clefC4	*	*clefF4	*clefG2	*clefG2	*clefG2	*clefG2	*clefG2	*clefG2
*	*	*	*	*	*	*	*	*	*	*	*	*ITrd0c0	*ITrd0c0	*ITrd4c7	*ITrd4c7
*k[b-]	*k[]	*	*k[]	*	*k[]	*	*k[]	*	*k[]	*k[]	*k[]	*k[]	*k[]	*k[b-]	*k[b-]
*M2/2	*M2/2	*	*M2/2	*	*M2/2	*	*M2/2	*	*M2/2	*M2/2	*M2/2	*M2/2	*M2/2	*M2/2	*M2/2
*met(c|)	*met(c|)	*	*met(c|)	*	*met(c|)	*	*met(c|)	*	*met(c|)	*met(c|)	*met(c|)	*met(c|)	*met(c|)	*met(c|)	*met(c|)
=1	=1	=1	=1	=1	=1	=1	=1	=1	=1	=1	=1	=1	=1	=1	=1
*	*	*	*	*	*2\right	*	*2\right	*	*	*	*	*	*	*	*
!LO:TX:a:t=problem:klucz zapisany tylko w tym takcie	!LO:TX:a:t=problem:klucz zapisany tylko w tym takcie	!	!LO:TX:a:t=problem:klucz zapisany tylko w tym takcie	!	!LO:TX:a:t=problem:klucz zapisany tylko w tym takcie	!	!LO:TX:a:t=problem:klucz zapisany tylko w tym takcie	!	!LO:TX:a:t=problem:klucz zapisany tylko w tym takcie	!LO:TX:a:t=problem:klucz zapisany tylko w tym takcie	!LO:TX:a:t=problem:klucz zapisany tylko w tym takcie	!	!LO:TX:a:t=problem:klucz zapisany tylko w tym takcie	!LO:TX:a:t=problem:klucz zapisany tylko w tym takcie	!LO:TX:a:t=problem:klucz zapisany tylko w tym takcie
!LO:TX:a:t=problem:główki ćwierćnut i ósemek są prostokątne	!LO:TX:a:t=problem:główki ćwierćnut i ósemek są prostokątne	!	!LO:TX:a:t=problem:główki ćwierćnut i ósemek są prostokątne	!	!LO:TX:a:t=problem:główki ćwierćnut i ósemek są prostokątne	!	!LO:TX:a:t=problem:główki ćwierćnut i ósemek są prostokątne	!	!LO:TX:a:t=problem:główki ćwierćnut i ósemek są prostokątne	!LO:TX:a:t=problem:główki ćwierćnut i ósemek są prostokątne	!LO:TX:a:t=problem:główki ćwierćnut i ósemek są prostokątne	!	!LO:TX:a:t=problem:główki ćwierćnut i ósemek są prostokątne	!LO:TX:a:t=problem:główki ćwierćnut i ósemek są prostokątne	!LO:TX:a:t=problem:główki ćwierćnut i ósemek są prostokątne
!LO:TX:b:t=3.	!LO:TX:a:t=problem:wszystkie nuty mają zawsze laski z prawej strony	!	!LO:TX:a:t=problem:wszystkie nuty mają zawsze laski z prawej strony	!	!LO:TX:a:t=problem:wszystkie nuty mają zawsze laski z prawej strony	!	!LO:TX:a:t=problem:wszystkie nuty mają zawsze laski z prawej strony	!	!LO:TX:a:t=3.	!LO:TX:b:t=3.	!LO:TX:a:t=3.	!	!LO:TX:b:t=3.	!LO:TX:b:t=3.	!LO:TX:b:t=3.
!LO:TX:a:t=Alla Cappella	!LO:TX:a:t=Alla Cappella	!	!LO:TX:a:t=Alla Cappella	!	!LO:TX:a:t=Alla Cappella	!	!LO:TX:a:t=Alla Cappella	!	!LO:TX:a:t=Alla Capella	!LO:TX:a:t=Alla Capella	!LO:TX:a:t=Alla Capella	!LO:TX:a:t=problem:brak skanu	!LO:TX:a:t=Alla Capella	!LO:TX:a:t=Alla Capella	!LO:TX:a:t=Alla Capella
0r	(2C/	Sa-	(2C/	Sa-	(2c\	Sa-	(2c\	Sa-	0r	0r	0r	1ryy	0r	0r	0r
.	2D/	.	2D/	.	2d\	.	2d\	.	.	.	.	.	.	.	.
=2	=2	=2	=2	=2	=2	=2	=2	=2	=2	=2	=2	=2	=2	=2	=2
*	*2\right	*	*2\right	*	*	*	*	*	*	*	*	*	*	*	*
.	2E\	.	2E\	.	2e\	.	2e\	.	.	.	.	1ryy	.	.	.
.	2C\)	-lus	2C\)	-lus	2c\)	-lus	2c\)	-lus	.	.	.	.	.	.	.
=3	=3	=3	=3	=3	=3	=3	=3	=3	=3	=3	=3	=3	=3	=3	=3
1r	2.GG/	po-	2.G\	po-	2.B\	po-	2.d\	po-	1r	1r	1r	1ryy	1r	1r	1r
.	4GG/	-pu-	4G\	-pu-	4B\	-pu-	4d\	-pu-	.	.	.	.	.	.	.
=4	=4	=4	=4	=4	=4	=4	=4	=4	=4	=4	=4	=4	=4	=4	=4
4r	2.C/	-li	2.E\	-li	2.c\	-li	2.c\	-li	4r	4r	4r	1ryy	4r	4r	4r
!	!	!	!	!	!	!	!	!	!LO:TX:a:t=problem:wszystkie nuty mają zawsze laski z prawej strony	!LO:TX:a:t=problem:wszystkie nuty mają zawsze laski z prawej strony	!LO:TX:a:t=problem:wszystkie nuty mają zawsze laski z prawej strony	!	!LO:TX:a:t=problem:wszystkie nuty mają zawsze laski z prawej strony	!LO:TX:a:t=problem:wszystkie nuty mają zawsze laski z prawej strony	!LO:TX:a:t=problem:wszystkie nuty mają zawsze laski z prawej strony
4C/	.	.	.	.	.	.	.	.	4C/	4e/	4cc\	.	4cc\	4c/	4g\
4C/	.	.	.	.	.	.	.	.	4C/	4e/	4cc\	.	4cc\	4c/	4g\
4C/	4r	.	4r	.	4r	.	4r	.	4C/	4e/	4cc\	.	4cc\	4c/	4g\
=5	=5	=5	=5	=5	=5	=5	=5	=5	=5	=5	=5	=5	=5	=5	=5
4C/	(2C/	Sa-	(2E\	Sa-	(2c\	Sa-	(2e\	sa-	4C/	4e/	4cc\	1ryy	4cc\	4c/	4g\
4r	.	.	.	.	.	.	.	.	4r	4r	4r	.	4r	4r	4r
2r	2D/	.	2F\	.	2d\	.	2f\	.	2r	2r	2r	.	2r	2r	2r
=6	=6	=6	=6	=6	=6	=6	=6	=6	=6	=6	=6	=6	=6	=6	=6
!LO:TX:a:t=2.	!	!	!	!	!	!	!	!	!LO:TX:a:t=2.	!LO:TX:a:t=2.	!LO:TX:a:t=2.	!	!LO:TX:a:t=2.	!LO:TX:a:t=2.	!LO:TX:a:t=2.
0r	2E\	.	2G\	.	2e\	.	2g\	.	0r	0r	0r	1ryy	0r	0r	0r
!	!	!	!	!	!LO:TX:a:t=problem:w rękpsie wysokość poprawiona z d na c	!	!	!	!	!	!	!	!	!	!
.	2C\)	-lus	2E\)	-lus	2c\)	-lus	2e\)	-lus	.	.	.	.	.	.	.
=7	=7	=7	=7	=7	=7	=7	=7	=7	=7	=7	=7	=7	=7	=7	=7
!	!LO:LB:g=original	!	!	!	!	!	!	!	!	!	!	!	!	!	!
.	2.AA/	po-	2.F\	po-	2.c\	po-	2.f\	po-	.	.	.	1ryy	.	.	.
.	4AA/	-pu-	4F\	-pu-	4c\	-pu-	4f\	-pu-	.	.	.	.	.	.	.
=8	=8	=8	=8	=8	=8	=8	=8	=8	=8	=8	=8	=8	=8	=8	=8
!	!	!	!LO:LB:g=original	!	!	!	!LO:LB:g=original	!	!	!	!	!	!	!	!
4r	2.C/	-li	2.G\	-li	2.c\	-li	2.e\	-li	4r	4r	4r	1ryy	4r	4r	4r
4C/	.	.	.	.	.	.	.	.	4C/	4e/	4cc\	.	4cc\	4c/	4g\
4C/	.	.	.	.	.	.	.	.	4C/	4e/	4cc\	.	4cc\	4c/	4g\
4C/	4r	.	4r	.	4r	.	4r	.	4C/	4e/	4cc\	.	4cc\	4c/	4g\
=9	=9	=9	=9	=9	=9	=9	=9	=9	=9	=9	=9	=9	=9	=9	=9
4BB-/	2BB/	E-	2G\	E-	2d\	E-	2f\	E-	4GG/	4g\	4dd\	1ryy	4dd\	4f\	4g\
4r	.	.	.	.	.	.	.	.	4r	4r	4r	.	4r	4r	4r
4C/	2C/	-go	2G\	-go	2c\	-go	2e\	-go	4C/	4cc\	4ee\	.	4ee\	4c/	4g\
4r	.	.	.	.	.	.	.	.	4r	4r	4r	.	4r	4r	4r
=10	=10	=10	=10	=10	=10||	=10	=10	=10	=10	=10	=10	=10	=10	=10	=10
*	*	*	*	*	*	*	*	*	*	*	*	*	*	*	*rep
!	!	!	!	!	!LO:LB:g=original	!	!	!	!	!LO:LB:g=original	!LO:LB:g=original	!	!	!	!
4GG/	2GG/	sum	2G\	sum	2B\	sum	2d\	sum	4GG/	4g/	4dd\	1ryy	4dd\	4g\	4g\
4r	.	.	.	.	.	.	.	.	4r	4r	4r	.	4r	4r	4r
4G\	4G\	di-	4G\	di-	4B\	di-	4d\	di-	4GG/	4g/	4dd\	.	4dd\	4g\	4g\
4r	4C/	-xit	4G\	-xit	4c\	-xit	4e\	-xit	4r	4r	4r	.	4r	4r	4r
*	*	*	*	*	*	*	*	*	*	*	*	*	*	*	*Xrep
=11	=11	=11	=11	=11	=11	=11	=11	=11	=11	=11	=11	=11	=11	=11	=11
*	*	*	*	*	*	*	*	*	*	*	*	*	*	*	*rep
!	!	!	!	!	!	!	!	!	!LO:LB:g=original	!	!	!	!LO:LB:g=original	!	!
4C/	4.C/	do-	4.E\	do-	4.G/	do-	2.c\	Do-	4C/	4e/	4cc\	1ryy	4cc\	4c/	4g\
4r	.	.	.	.	.	.	.	.	4r	4r	4r	.	4r	4r	4r
.	8C/	-mi-	8E\	-mi-	8G/	-mi-	.	.	.	.	.	.	.	.	.
4C/	4C/	-nus	4E\	-nus	4G/	-nus	.	.	2r	2r	2r	.	4cc\	4c/	4g\
4r	4r	.	4r	.	4r	.	8.B\L	.	.	.	.	.	4r	4r	4r
.	.	.	.	.	.	.	16c\Jk	-mi-	.	.	.	.	.	.	.
*	*	*	*	*	*	*	*	*	*	*	*	*	*	*	*Xrep
=12	=12	=12	=12	=12	=12	=12	=12	=12	=12	=12	=12	=12	=12	=12	=12
!LO:LB:g=original	!LO:TX:a:t=1	!	!LO:TX:a:t=1.	!	!	!	!	!	!LO:TX:a:t=31	!LO:TX:a:t=30.	!LO:TX:a:t=30.	!	!	!LO:LB:g=original	!
4C/	1r	.	1r	.	2c\	de	2c\	-nus	1r	1r	1r	1ryy	4cc\	4c/	4g\
4r	.	.	.	.	.	.	.	.	.	.	.	.	4r	4r	4r
2r	.	.	.	.	2d\	qua-	2r	.	.	.	.	.	2r	2r	2r
=13	=13	=13	=13	=13	=13	=13	=13	=13	=13	=13	=13	=13	=13	=13	=13
!LO:TX:a:t=29.	!	!	!	!	!	!	!LO:TX:a:t=4.	!	!	!	!	!	!LO:TX:a:t=28.	!LO:TX:a:t=29.	!LO:TX:a:t=29.
1r	4r	.	4r	.	2e\	-cun-	00r	.	1r	1r	1r	1ryy	1r	1r	1r
.	2C\	ego	2E\	ego	.	.	.	.	.	.	.	.	.	.	.
.	.	.	.	.	2c\	-que	.	.	.	.	.	.	.	.	.
.	4E\	.	4G\	.	.	.	.	.	.	.	.	.	.	.	.
=14	=14	=14	=14	=14	=14	=14	=14	=14	=14	=14	=14	=14	=14	=14	=14
1r	2G\	sum	2G\	sum	2.d\	tri-	.	.	1r	1r	1r	1ryy	1r	1r	1r
.	2r	.	2r	.	.	.	.	.	.	.	.	.	.	.	.
.	.	.	.	.	4d\	-bu-	.	.	.	.	.	.	.	.	.
=15	=15	=15	=15	=15	=15	=15	=15	=15	=15	=15	=15	=15	=15	=15	=15
!	!	!	!LO:TX:a:t=1	!	!	!	!	!	!	!	!	!	!	!	!
1r	4r	.	1r	.	4c\	-la-	.	.	1r	1r	1r	1ryy	1r	1r	1r
.	8G\L	Sa-	.	.	4B\	-ti-	.	.	.	.	.	.	.	.	.
.	8F\J	.	.	.	.	.	.	.	.	.	.	.	.	.	.
.	4E\	.	.	.	4c\	-o-	.	.	.	.	.	.	.	.	.
.	8D\L	.	.	.	8d\	-ne	.	.	.	.	.	.	.	.	.
.	8C\J	.	.	.	8e\	cla-	.	.	.	.	.	.	.	.	.
=16	=16||	=16	=16	=16	=16	=16	=16	=16	=16	=16	=16	=16	=16	=16	=16
!	!LO:LB:g=original	!	!	!	!	!	!	!	!	!	!	!	!	!	!
1r	1D	.	2.A\	sa-	2.f\	-ma-	.	.	1r	1r	1r	1ryy	1r	1r	1r
.	.	.	4B\	.	4f\	-vi	.	.	.	.	.	.	.	.	.
=17	=17	=17	=17	=17	=17	=17	=17	=17	=17	=17	=17	=17	=17	=17	=17
!	!	!	!LO:LB:g=original	!	!	!	!	!	!	!	!	!	!	!	!
!	!	!	!LO:TX:a:t=problem:laska nuty c z lewej strony	!	!	!	!	!	!	!	!	!	!	!	!
1r	4C/	-lus	4c\	-lus	4e\	ve-	2c\	de	1r	1r	1r	1ryy	1r	1r	1r
.	4r	.	4r	.	4c\	-ni-	.	.	.	.	.	.	.	.	.
.	2r	.	2r	.	4B\	-ent	2d\	qua-	.	.	.	.	.	.	.
.	.	.	.	.	4A\	ad	.	.	.	.	.	.	.	.	.
=18	=18	=18	=18	=18	=18	=18	=18	=18	=18	=18	=18	=18	=18	=18	=18
!	!LO:TX:a:t=4.	!	!LO:TX:a:t=3.	!	!LO:LB:g=original	!	!	!	!	!	!	!	!	!	!
1r	00r	.	0r	.	4G/	me	2e\	-cun-	1r	1r	1r	1ryy	1r	1r	1r
.	.	.	.	.	4F/	ex-	.	.	.	.	.	.	.	.	.
.	.	.	.	.	4E/	-au-	2c\	-que	.	.	.	.	.	.	.
.	.	.	.	.	[4c\	.	.	.	.	.	.	.	.	.	.
=19	=19	=19	=19	=19	=19	=19	=19	=19	=19	=19	=19	=19	=19	=19	=19
1r	.	.	.	.	4c\]	.	2.d\	tri-	1r	1r	1r	1ryy	1r	1r	1r
.	.	.	.	.	8B\L	.	.	.	.	.	.	.	.	.	.
.	.	.	.	.	8A\J	.	.	.	.	.	.	.	.	.	.
.	.	.	.	.	8B\L	.	.	.	.	.	.	.	.	.	.
.	.	.	.	.	8A\	.	.	.	.	.	.	.	.	.	.
.	.	.	.	.	8G\	.	4d\	-bu-	.	.	.	.	.	.	.
.	.	.	.	.	8F\J	.	.	.	.	.	.	.	.	.	.
=20	=20	=20	=20	=20	=20	=20	=20	=20	=20	=20	=20	=20	=20	=20	=20
!	!	!	!	!	!	!	!LO:LB:g=original	!	!	!	!	!	!	!	!
1r	.	.	1r	.	4E/	-di-	4c\	-la-	1r	1r	1r	1ryy	1r	1r	1r
.	.	.	.	.	8G/L	.	4B\	-ti-	.	.	.	.	.	.	.
.	.	.	.	.	8F/J	.	.	.	.	.	.	.	.	.	.
.	.	.	.	.	4E/	-am	4c\	-o-	.	.	.	.	.	.	.
.	.	.	.	.	8F/L	E-	8d\L	-ne	.	.	.	.	.	.	.
.	.	.	.	.	8G/J	.	8e\J	cla-	.	.	.	.	.	.	.
=21	=21	=21	=21	=21	=21	=21	=21	=21	=21	=21	=21	=21	=21	=21	=21
1r	.	.	4r	.	4A\	.	2.f\	-ma-	1r	1r	1r	1ryy	1r	1r	1r
.	.	.	8A\L	cla-	8F/L	.	.	.	.	.	.	.	.	.	.
.	.	.	8G\J	.	8G/J	.	.	.	.	.	.	.	.	.	.
.	.	.	4F\	-ma-	4A\	.	.	.	.	.	.	.	.	.	.
.	.	.	4D\	-ve-	4B\	.	4f\	-ve-	.	.	.	.	.	.	.
=22	=22	=22	=22	=22	=22	=22	=22	=22	=22	=22	=22	=22	=22	=22	=22
1r	2C/	de	4C\	-rent	4c\	-os.	4e\	-rit	1r	1r	1r	1ryy	1r	1r	1r
!	!	!	!LO:TX:a:t=problem:laska nuty c z lewej strony	!	!	!	!	!	!	!	!	!	!	!	!
.	.	.	4c\	.	4r	.	4e\	ad	.	.	.	.	.	.	.
.	2D/	qua-	4B\	ad	2r	.	4d\	me	.	.	.	.	.	.	.
.	.	.	4A\	me	.	.	4c\	ex-	.	.	.	.	.	.	.
=23	=23	=23	=23	=23	=23	=23	=23	=23	=23	=23	=23	=23	=23	=23	=23
!	!	!	!	!	!LO:TX:a:t=5.	!	!	!	!	!	!	!	!	!	!
1r	2E\	-cun-	(4G\	ex-	00r	.	(4c\	-au-	1r	1r	1r	1ryy	1r	1r	1r
.	.	.	8F\L	-au-	.	.	8A\L	.	.	.	.	.	.	.	.
.	.	.	8G\J	.	.	.	8B\J	.	.	.	.	.	.	.	.
.	2C\	-que	4A\	.	.	.	4c\	.	.	.	.	.	.	.	.
.	.	.	4G\)	.	.	.	4B\)	.	.	.	.	.	.	.	.
=24	=24	=24	=24	=24	=24	=24	=24	=24	=24	=24	=24	=24	=24	=24	=24
1r	2.D\	tri-	4F\	.	.	.	4A\	.	1r	1r	1r	1ryy	1r	1r	1r
.	.	.	4G\	.	.	.	4B\	.	.	.	.	.	.	.	.
.	.	.	4A\	.	.	.	4c\	.	.	.	.	.	.	.	.
.	4D\	-bu-	4B\	.	.	.	4d\	.	.	.	.	.	.	.	.
=25	=25	=25	=25	=25	=25	=25	=25	=25	=25	=25	=25	=25	=25	=25	=25
!	!	!	!LO:TX:a:t=problem:laska nuty c z lewej strony	!	!	!	!	!	!	!	!	!	!	!	!
1r	4C/	-la-	4c\	.	.	.	4e\	.	1r	1r	1r	1ryy	1r	1r	1r
!	!	!	!	!	!	!	!LO:TX:a:t=problem:laska nuty g z lewej strony	!	!	!	!	!	!	!	!
.	4BB/	-ti-	4d\	-di-	.	.	8g\L	.	.	.	.	.	.	.	.
.	.	.	.	.	.	.	8f\J	-di-	.	.	.	.	.	.	.
!	!	!	!LO:TX:a:t=problem:laska nuty c z lewej strony	!	!	!	!	!	!	!	!	!	!	!	!
.	4C/	-o-	8c\L	-am	.	.	4e\	-am	.	.	.	.	.	.	.
.	.	.	8E\	.	.	.	.	.	.	.	.	.	.	.	.
.	8D/L	-ne	8F\	.	.	.	8d\L	E-	.	.	.	.	.	.	.
.	8E/J	cla-	8G\J	.	.	.	8c\J	.	.	.	.	.	.	.	.
=26	=26	=26	=26	=26	=26	=26	=26	=26	=26	=26	=26	=26	=26	=26	=26
1r	2.F\	-ma-	2.A\	E-	.	.	8c\L	.	1r	1r	1r	1ryy	1r	1r	1r
.	.	.	.	.	.	.	(8B\	.	.	.	.	.	.	.	.
.	.	.	.	.	.	.	8A\	.	.	.	.	.	.	.	.
.	.	.	.	.	.	.	8B\J)	.	.	.	.	.	.	.	.
.	.	.	.	.	.	.	4c\	.	.	.	.	.	.	.	.
.	4F\	-vi	4A\	-os	.	.	4d\	.	.	.	.	.	.	.	.
=27	=27	=27	=27	=27	=27	=27	=27	=27	=27	=27	=27	=27	=27	=27	=27
!	!	!	!LO:LB:g=original	!	!	!	!LO:LB:g=original	!	!	!	!	!	!	!	!
1r	2E\	E-	1G	E-	1r	.	(8d\L	.	1r	1r	1r	1ryy	1r	1r	1r
.	.	.	.	.	.	.	8e\J)	.	.	.	.	.	.	.	.
.	.	.	.	.	.	.	2c\	.	.	.	.	.	.	.	.
.	2D\	.	.	.	.	.	.	.	.	.	.	.	.	.	.
.	.	.	.	.	.	.	4B\	.	.	.	.	.	.	.	.
=28	=28	=28	=28	=28	=28	=28	=28	=28	=28	=28	=28	=28	=28	=28	=28
!	!LO:LB:g=original	!	!	!	!	!	!	!	!	!	!	!	!	!	!
1r	2C/	.	2.G\	.	4r	.	1A	.	1r	1r	1r	1ryy	1r	1r	1r
.	.	.	.	.	4e\	Ex-	.	.	.	.	.	.	.	.	.
.	2D/	.	.	.	4.d\	-au-	.	.	.	.	.	.	.	.	.
.	.	.	4F#X\	-os	.	.	.	.	.	.	.	.	.	.	.
.	.	.	.	.	8c\	-diam	.	.	.	.	.	.	.	.	.
=29	=29	=29	=29	=29	=29	=29	=29	=29	=29	=29	=29	=29	=29	=29	=29
!	!	!	!	!	!LO:LB:g=original	!	!	!	!	!	!	!	!	!	!
1r	4GG/	-os	2G\	de	2B\	de	4G/	-os	1r	1r	1r	1ryy	1r	1r	1r
.	4G\	ad	.	.	.	.	4r	.	.	.	.	.	.	.	.
.	4F#X\	me	2A\	qua-	2c\	qua-	2r	.	.	.	.	.	.	.	.
.	4E\	ex-	.	.	.	.	.	.	.	.	.	.	.	.	.
=30	=30	=30	=30	=30	=30	=30	=30	=30	=30	=30	=30	=30	=30	=30	=30
!	!	!	!	!	!	!	!LO:TX:a:t=4.	!	!	!	!	!	!	!	!
1r	4D\	-au-	2B\	-cun-	2d\	-cun-	00r	.	1r	1r	1r	1ryy	1r	1r	1r
.	8C/L	.	.	.	.	.	.	.	.	.	.	.	.	.	.
.	8D/J	.	.	.	.	.	.	.	.	.	.	.	.	.	.
.	4E\	.	2G\	-que	2B\	-que	.	.	.	.	.	.	.	.	.
.	4D\	.	.	.	.	.	.	.	.	.	.	.	.	.	.
=31	=31	=31	=31	=31	=31	=31	=31	=31	=31	=31	=31	=31	=31	=31	=31
1r	4C/	.	2.A\	tri-	2.c\	tri-	.	.	1r	1r	1r	1ryy	1r	1r	1r
.	4D/	.	.	.	.	.	.	.	.	.	.	.	.	.	.
.	4E\	.	.	.	.	.	.	.	.	.	.	.	.	.	.
.	4F#X\	.	4A\	-bu-	4c\	-bu-	.	.	.	.	.	.	.	.	.
=32	=32	=32	=32	=32	=32	=32	=32	=32	=32	=32	=32	=32	=32	=32	=32
1r	4G\	.	4G\	-la-	4B\	-la-	.	.	1r	1r	1r	1ryy	1r	1r	1r
.	8D\L	-di-	4F#X\	-ti-	4A\	-ti-	.	.	.	.	.	.	.	.	.
.	8C\J	.	.	.	.	.	.	.	.	.	.	.	.	.	.
.	4BB/	-am	4G\	-o-	4B\	-o-	.	.	.	.	.	.	.	.	.
.	8AA/L	.	8A\	-ne	8c\	-ne	.	.	.	.	.	.	.	.	.
.	8GG/J	E-	8B\	cla-	8d\	cla-	.	.	.	.	.	.	.	.	.
=33	=33	=33	=33	=33	=33	=33	=33	=33	=33	=33	=33	=33	=33	=33	=33
1r	4C/	-os	2.c\	-ma-	2.e\	-ma-	.	.	1r	1r	1r	1ryy	1r	1r	1r
.	8C/L	ex-	.	.	.	.	.	.	.	.	.	.	.	.	.
.	8D/J	.	.	.	.	.	.	.	.	.	.	.	.	.	.
.	4E\	-au-	.	.	.	.	.	.	.	.	.	.	.	.	.
!	!	!	!LO:TX:a:t=problem:laska nuty c z lewej strony	!	!	!	!	!	!	!	!	!	!	!	!
.	4F#X\	-di-	4c\	-ve-	4e\	-ve-	.	.	.	.	.	.	.	.	.
=34	=34	=34	=34	=34	=34	=34	=34	=34	=34	=34	=34	=34	=34	=34	=34
1r	4G\	-am	2B\	-rent	4d\	-rint	4r	.	1r	1r	1r	1ryy	1r	1r	1r
!	!	!	!	!	!	!	!LO:TX:a:t=problem:laska nuty g z lewej strony	!	!	!	!	!	!	!	!
.	8BB/L	.	.	.	4G\	de	4g\	ad	.	.	.	.	.	.	.
.	8C/J	E-	.	.	.	.	.	.	.	.	.	.	.	.	.
.	2D\	.	2r	.	2A\	qua-	4f#X\	me	.	.	.	.	.	.	.
.	.	.	.	.	.	.	4e\	ex-	.	.	.	.	.	.	.
=35	=35	=35	=35	=35	=35	=35	=35	=35	=35	=35	=35	=35	=35	=35	=35
!	!LO:LB:g=original	!	!LO:LB:g=original	!	!	!	!	!	!	!	!	!	!	!	!
!	!	!	!LO:TX:a:t=problem:brak pustego taktu	!	!	!	!	!	!	!	!	!	!	!	!
1r	2GG/	-os	1ryy	.	2B\	-cun-	(4d\	-au-	1r	1r	1r	1ryy	1r	1r	1r
.	.	.	.	.	.	.	4c\	.	.	.	.	.	.	.	.
.	2BB/	E-	.	.	2G\	-que	4B\)	.	.	.	.	.	.	.	.
!	!	!	!	!	!	!	!LO:TX:a:t=problem:laska nuty g z lewej strony	!	!	!	!	!	!	!	!
.	.	.	.	.	.	.	[4g\	.	.	.	.	.	.	.	.
=36	=36	=36	=36	=36	=36	=36	=36	=36	=36	=36	=36	=36	=36	=36	=36
1r	2C/	.	2r	.	2.A\	tri-	4g\]	.	1r	1r	1r	1ryy	1r	1r	1r
.	.	.	.	.	.	.	8f#X\L	.	.	.	.	.	.	.	.
.	.	.	.	.	.	.	8e\J	.	.	.	.	.	.	.	.
.	2D/	.	4r	.	.	.	8f#\L	.	.	.	.	.	.	.	.
.	.	.	.	.	.	.	8e\	.	.	.	.	.	.	.	.
.	.	.	4D\	ex-	4A\	-bu-	8d\	.	.	.	.	.	.	.	.
.	.	.	.	.	.	.	8c\J	.	.	.	.	.	.	.	.
=37	=37	=37	=37	=37	=37	=37	=37	=37	=37	=37	=37	=37	=37	=37	=37
!	!	!	!	!	!LO:LB:g=original	!	!	!	!	!	!	!	!	!	!
1r	4GG/	-os	2E\	-au-	4G/	-la-	4B\	.	1r	1r	1r	1ryy	1r	1r	1r
.	4r	.	.	.	4F#X/	-ti-	8d\L	.	.	.	.	.	.	.	.
.	.	.	.	.	.	.	8c\J	-di-	.	.	.	.	.	.	.
.	2r	.	2D\	-di-	4G/	-o-	4B\	-am	.	.	.	.	.	.	.
.	.	.	.	.	8A/L	-ne	8c\L	E-	.	.	.	.	.	.	.
.	.	.	.	.	8B/J	cla-	8d\J	.	.	.	.	.	.	.	.
=38	=38	=38	=38	=38	=38	=38	=38	=38	=38	=38	=38	=38	=38	=38	=38
!	!	!	!	!	!	!	!LO:LB:g=original	!	!	!	!	!	!	!	!
1r	4r	.	4D\	-am	2.c\	-ma-	4e\	.	1r	1r	1r	1ryy	1r	1r	1r
.	8E/L	e-	4r	.	.	.	8c\L	.	.	.	.	.	.	.	.
.	8D/J	.	.	.	.	.	8d\J	.	.	.	.	.	.	.	.
.	4C/	-xau-	2r	.	.	.	4e\	.	.	.	.	.	.	.	.
.	4AA/	-di-	.	.	4c\	-ve-	4f#X\	.	.	.	.	.	.	.	.
=39	=39	=39	=39	=39	=39	=39	=39	=39	=39	=39	=39	=39	=39	=39	=39
!	!	!	!LO:TX:a:t=2.	!	!	!	!LO:TX:a:t=problem:laska nuty g z lewej strony	!	!	!	!	!	!	!	!
!	!	!	!LO:N:vis=0	!	!	!	!	!	!	!	!	!	!	!	!
1r	2GG/	-am	1r	.	4B\	-ri-	4g\	-os	1r	1r	1r	1ryy	1r	1r	1r
.	.	.	.	.	8G\L	-ent	8B\L	e-	.	.	.	.	.	.	.
.	.	.	.	.	8A\J	e-	8c\J	.	.	.	.	.	.	.	.
.	2r	.	.	.	2B\	.	4d\	.	.	.	.	.	.	.	.
.	.	.	.	.	.	.	4d#X\	.	.	.	.	.	.	.	.
=40	=40	=40	=40	=40	=40	=40	=40	=40	=40	=40	=40	=40	=40	=40	=40
!	!LO:TX:a:t=1	!	!	!	!	!	!	!	!	!	!	!	!	!	!
1r	1r	.	4r	.	2.c\	-xau-	2.e\	-xau-	1r	1r	1r	1ryy	1r	1r	1r
.	.	.	8C/L	e-	.	.	.	.	.	.	.	.	.	.	.
.	.	.	8D/J	.	.	.	.	.	.	.	.	.	.	.	.
.	.	.	4E\	.	.	.	.	.	.	.	.	.	.	.	.
.	.	.	4F#X\	.	[4c\	-di-	[4e\	-di-	.	.	.	.	.	.	.
=41	=41	=41	=41	=41	=41	=41	=41	=41	=41	=41	=41	=41	=41	=41	=41
1r	2r	.	2G\	-xau-	4c\]	.	4e\]	.	1r	1r	1r	1ryy	4r	1r	1r
.	.	.	.	.	4B\	.	4d\	.	.	.	.	.	8g/L	.	.
.	.	.	.	.	.	.	.	.	.	.	.	.	8b/J	.	.
.	4r	.	4G\	-di-	4A#X\	.	4c#X\	.	.	.	.	.	4ee\	.	.
.	8GG/L	E-	4G\	-am	4B\	-am	4d\	-am	.	.	.	.	4dd\	.	.
.	8BB/J	.	.	.	.	.	.	.	.	.	.	.	.	.	.
=42	=42	=42	=42	=42	=42	=42	=42	=42	=42	=42	=42	=42	=42	=42	=42
4r	1D	.	(2.G\	E-	2B\	E-	2d\	E-	1r	4r	4r	1ryy	4dd\	4r	4r
4D\	.	.	.	.	.	.	.	.	.	8dd\L	8dd\L	.	8dd\L	8g\L	8g\L
.	.	.	.	.	.	.	.	.	.	8dd\J	8dd\J	.	8dd\J	8g\J	8g\J
4D\	.	.	.	.	2An\	.	2cn\	.	.	4dd\	4dd\	.	4dd\	4f#X\	4a\
4D\	.	.	4F#X\)	.	.	.	.	.	.	4dd\	4dd\	.	4dd\	4f#\	4a\
=43	=43	=43	=43	=43	=43	=43	=43	=43	=43	=43	=43	=43	=43	=43	=43
!	!	!	!	!	!	!	!	!	!	!	!	!	!	!	!LO:LB:g=original
4GG/	2GG/	-os	2G\	-os	4G\	-os	4B\	-os	4GG/	4g/	4dd\	1ryy	4dd\	4g\	4g\
4r	.	.	.	.	8G\L	e-	8B\L	e-	4r	4r	4r	.	4r	4r	4r
.	.	.	.	.	8A\J	.	8c\J	.	.	.	.	.	.	.	.
2r	2r	.	2r	.	2B\	.	4d\	.	2r	2r	2r	.	2r	2r	2r
.	.	.	.	.	.	.	4d#X\	.	.	.	.	.	.	.	.
=44	=44	=44	=44	=44	=44	=44	=44	=44	=44	=44	=44	=44	=44	=44	=44
!	!LO:LB:g=original	!	!	!	!	!	!	!	!	!	!	!	!	!	!
!LO:TX:a:t=2.	!LO:TX:a:t=1	!	!LO:LB:g=original	!	!LO:LB:g=original	!	!	!	!LO:TX:a:t=3.	!LO:TX:a:t=2.	!LO:TX:a:t=2.	!	!LO:TX:a:t=1.	!LO:TX:a:t=2.	!LO:TX:a:t=2.
0r	1r	.	4r	.	2.c\	-xau-	2.e\	-xau-	0r	0r	0r	1ryy	1r	0r	0r
.	.	.	8C/L	e-	.	.	.	.	.	.	.	.	.	.	.
.	.	.	8D/J	.	.	.	.	.	.	.	.	.	.	.	.
.	.	.	4E\	.	.	.	.	.	.	.	.	.	.	.	.
.	.	.	4F#X\	.	4c\	-di-	4e\	-di-	.	.	.	.	.	.	.
=45	=45	=45	=45	=45	=45	=45	=45	=45	=45	=45	=45	=45	=45	=45	=45
.	2r	.	2G\	-xau-	4c\	.	4e\	.	.	.	.	1ryy	4r	.	.
.	.	.	.	.	4B\	.	4d\	.	.	.	.	.	8g\L	.	.
.	.	.	.	.	.	.	.	.	.	.	.	.	8b\J	.	.
.	4r	.	4G\	-di-	4A#X\	.	4c#X\	.	.	.	.	.	4ee\	.	.
.	8GG/L	E-	4G\	-am	4B\	-am	4d\	-am	.	.	.	.	4dd\	.	.
.	8BB/J	.	.	.	.	.	.	.	.	.	.	.	.	.	.
=46	=46	=46	=46	=46	=46	=46	=46||	=46	=46	=46	=46	=46	=46	=46	=46
!	!	!	!	!	!	!	!LO:LB:g=original	!	!	!	!	!	!	!	!
4r	1D	.	2.G\	E-	2B\	E-	2d\	E-	1r	4r	4r	1ryy	4dd\	4r	4r
4D\	.	.	.	.	.	.	.	.	.	8dd\L	8dd\L	.	8dd\L	8g\L	8g\L
.	.	.	.	.	.	.	.	.	.	8dd\J	8dd\J	.	8dd\J	8g\J	8g\J
4D\	.	.	.	.	2An\	.	2cn\	.	.	4dd\	4dd\	.	4dd\	4f#X\	4a\
4D\	.	.	4F#X\	.	.	.	.	.	.	4dd\	4dd\	.	4dd\	4f#\	4a\
=47	=47	=47	=47	=47	=47	=47	=47	=47	=47	=47	=47	=47	=47	=47	=47
*2\right	*	*	*	*	*	*	*	*	*	*	*	*	*2\right	*	*
!	!	!	!	!	!	!	!	!	!	!	!LO:LB:g=original	!	!LO:LB:g=original	!	!
2G\	2GG/ 2G	-os	2G\	-os	2G/	-os	2B\	-os	4GG/	4g/	4dd\	1ryy	2ee\	1g	1g
.	.	.	.	.	.	.	.	.	4r	4r	4r	.	.	.	.
2C\	2C/	e-	2G\	E-	2c\	E-	2e\	E-	4C/	4cc\	4ee\	.	2ee\	.	.
.	.	.	.	.	.	.	.	.	4r	4r	4r	.	.	.	.
=48	=48	=48	=48	=48	=48	=48	=48	=48	=48	=48	=48	=48	=48	=48	=48
*	*	*	*	*	*	*	*	*	*	*	*	*	*	*2\right	*2\right
!	!	!	!	!	!	!	!	!	!LO:TX:a:t=1.	!LO:LB:g=original	!	!	!	!	!
1D	1D	.	2G\	.	2B\	.	1d	.	1r	4dd\	4dd\	1ryy	1dd	2g\	2g\
.	.	.	.	.	.	.	.	.	.	8dd\L	8dd\L	.	.	.	.
.	.	.	.	.	.	.	.	.	.	8dd\J	8dd\J	.	.	.	.
.	.	.	2F#X\	.	2A\	.	.	.	.	4dd\	4dd\	.	.	2f#X\	2a\
.	.	.	.	.	.	.	.	.	.	4dd\	4dd\	.	.	.	.
=49	=49	=49	=49	=49	=49	=49	=49	=49	=49	=49	=49	=49	=49	=49	=49
*	*	*	*	*	*	*	*	*	*	*	*rep	*	*	*	*
4GG/	2GG/	-os	2G\	-os	2B\	-os	2d\	-os	4GG/	4g/	4dd\	1ryy	4dd\	4g\	4g\
4G\	.	.	.	.	.	.	.	.	8GG/L	8g/L	8dd\L	.	8dd\L	8fn\L	8g\L
.	.	.	.	.	.	.	.	.	8GG/J	8g/J	8dd\J	.	8dd\J	8f\J	8g\J
4G\	2r	.	2r	.	2r	.	2r	.	4GG/	4g/	4dd\	.	4dd\	4f\	4g\
4G\	.	.	.	.	.	.	.	.	4GG/	4g/	4dd\	.	4dd\	4f\	4g\
*	*	*	*	*	*	*	*	*	*	*	*Xrep	*	*	*	*
=50	=50	=50	=50	=50	=50	=50	=50	=50	=50	=50	=50	=50	=50	=50	=50
4C/	(2C/	Sa-	(2C/	Sa-	(2c\	sa-	(2c\	Sa-	4C/	4e/	4cc\	1ryy	4cc\	4e\	4g\
4r	.	.	.	.	.	.	.	.	4r	4r	4r	.	4r	4r	4r
2r	2D/	.	2D/	.	2d\	.	2d\	.	2r	2r	2r	.	2r	2r	2r
=51	=51	=51	=51	=51	=51	=51	=51	=51	=51	=51	=51	=51	=51	=51	=51
!	!	!	!	!	!	!	!	!	!	!	!	!	!	!LO:LB:g=original	!
!LO:TX:a:t=2.	!	!	!	!	!	!	!	!	!LO:TX:a:t=2.	!LO:TX:a:t=2.	!LO:TX:a:t=2.	!	!LO:TX:a:t=2.	!LO:TX:a:t=2.	!LO:TX:a:t=2.
0r	2E\	.	2E\	.	2e\	.	2e\	.	0r	0r	0r	1ryy	0r	0r	0r
!	!	!	!LO:TX:a:t=SIC:s=2C	!	!	!	!	!	!	!	!	!	!	!	!
.	2C\)	-lus	2D\)	-lus	2c\)	-lus	2c\)	-lus	.	.	.	.	.	.	.
=52	=52	=52	=52	=52	=52	=52	=52	=52	=52	=52	=52	=52	=52	=52	=52
!	!	!	!LO:LB:g=original	!	!LO:LB:g=original	!	!	!	!	!	!	!	!	!	!
.	2.GG/	po-	2.G\	po-	2.B\	po	2.d\	po-	.	.	.	1ryy	.	.	.
.	4GG/	-pu-	4G\	-pu-	4B\	pu	4d\	-pu-	.	.	.	.	.	.	.
=53	=53	=53	=53	=53	=53	=53	=53	=53	=53	=53	=53	=53	=53	=53	=53
!LO:LB:g=original	!	!	!	!	!	!	!	!	!	!	!	!	!	!	!
4r	2.C/	-li	2.E\	-li	2.c\	li	2.c\	-li	4r	4r	4r	1ryy	4r	4r	4r
4C/	.	.	.	.	.	.	.	.	4C/	4e/	4cc\	.	4cc\	4c/	4g\
4C/	.	.	.	.	.	.	.	.	4C/	4e/	4cc\	.	4cc\	4c/	4g\
4C/	4r	.	4r	.	4r	.	4r	.	4C/	4e/	4cc\	.	4cc\	4c/	4g\
=54	=54	=54	=54	=54	=54	=54	=54	=54	=54	=54	=54	=54	=54	=54	=54
!	!LO:LB:g=original	!	!	!	!	!	!	!	!	!	!	!	!	!	!
4C/	(2C/	sa-	4r	.	4r	.	(2e\	sa-	4C/	4e/	4cc\	1ryy	4cc\	4c/	4g\
!	!	!	!LO:TX:a:t=problem:laska nuty c z lewej strony	!	!	!	!	!	!	!	!	!	!	!	!
4r	.	.	4c\	Sa-	4e\	sa-	.	.	4r	4r	4r	.	4r	4r	4r
2r	2D/	.	4B\	.	4d\	.	2f\	.	2r	2r	2r	.	2r	2r	2r
.	.	.	4A\	.	4c\	.	.	.	.	.	.	.	.	.	.
=55	=55	=55	=55	=55	=55	=55	=55	=55	=55||	=55	=55	=55	=55	=55	=55
!	!	!	!	!	!	!	!	!	!LO:LB:g=original	!	!	!	!	!	!
!LO:TX:a:t=3.	!	!	!	!	!	!	!	!	!LO:TX:a:t=3.	!LO:TX:a:t=3.	!LO:TX:a:t=3.	!	!LO:TX:a:t=3.	!LO:TX:a:t=3.	!LO:TX:a:t=3.
0r	2E\	.	4G\	.	4B\	.	2g\	.	0r	0r	0r	1ryy	0r	0r	0r
.	.	.	8F\L	.	8A\L	.	.	.	.	.	.	.	.	.	.
.	.	.	8G\J	.	8B\J	.	.	.	.	.	.	.	.	.	.
.	2C\)	-lus	4A\	.	4c\	.	2e\)	-lus	.	.	.	.	.	.	.
.	.	.	4G\	.	4B\	.	.	.	.	.	.	.	.	.	.
=56	=56	=56	=56	=56	=56	=56	=56	=56	=56	=56	=56	=56	=56	=56	=56
!	!	!	!	!	!	!	!LO:LB:g=original	!	!	!	!	!	!	!	!
.	2.D\	E-	4F\	-lus	4A\	-lus	2.f\	Ego-	.	.	.	1ryy	.	.	.
.	.	.	(4G\	e-	(4B\	E-	.	.	.	.	.	.	.	.	.
.	.	.	4A\)	.	4c\)	.	.	.	.	.	.	.	.	.	.
.	4D\	-go	4B\	-go	4d\	-go	4f\	.	.	.	.	.	.	.	.
=57	=57	=57	=57	=57	=57	=57	=57	=57	=57	=57	=57	=57	=57	=57	=57
!	!	!	!LO:TX:a:t=problem:laska nuty c z lewej strony	!	!	!	!	!	!	!	!	!	!	!	!
1r	4C/	sum	4c\	sum	4e\	sum	4e\	-sum	1r	1r	1r	1ryy	1r	1r	1r
!	!	!	!	!	!	!	!LO:TX:a:t=problem:laska nuty g z lewej strony	!	!	!	!	!	!	!	!
.	4BB/	di-	2G\	di-	(4d\	di-	8g\L	di-	.	.	.	.	.	.	.
.	.	.	.	.	.	.	8f\J	.	.	.	.	.	.	.	.
.	4C/	.	.	.	4e\)	.	4e\	.	.	.	.	.	.	.	.
!	!	!	!LO:TX:a:t=problem:laska nuty c z lewej strony	!	!	!	!	!	!	!	!	!	!	!	!
.	8D/L	.	4c\	-xit	4c\	-xit	8f\L	.	.	.	.	.	.	.	.
!	!	!	!	!	!	!	!LO:TX:a:t=problem:laska nuty g z lewej strony	!	!	!	!	!	!	!	!
.	8E/J	-xit	.	.	.	.	8g\J	-xit	.	.	.	.	.	.	.
=58	=58	=58	=58	=58	=58	=58	=58|	=58|	=58|	=58||	=58|	=58||	=58||	=58|	=58||
*	*	*	*	*	*	*	*	*	*tremolo	*	*	*	*	*	*
!	!	!	!	!	!	!	!	!	!	!	!LO:LB:g=original	!	!	!	!LO:LB:g=original
1F	2.F\	Do-	2.A\	Do-	2.c\	Do-	2.a\	Do-	32C/LLL	[>1c	[1cc	1ryy	(1cc	1f	1a
.	.	.	.	.	.	.	.	.	32C/	.	.	.	.	.	.
.	.	.	.	.	.	.	.	.	32C/	.	.	.	.	.	.
.	.	.	.	.	.	.	.	.	32C/	.	.	.	.	.	.
.	.	.	.	.	.	.	.	.	32C/	.	.	.	.	.	.
.	.	.	.	.	.	.	.	.	32C/	.	.	.	.	.	.
.	.	.	.	.	.	.	.	.	32C/	.	.	.	.	.	.
.	.	.	.	.	.	.	.	.	32C/	.	.	.	.	.	.
.	.	.	.	.	.	.	.	.	32C/	.	.	.	.	.	.
.	.	.	.	.	.	.	.	.	32C/	.	.	.	.	.	.
.	.	.	.	.	.	.	.	.	32C/	.	.	.	.	.	.
.	.	.	.	.	.	.	.	.	32C/	.	.	.	.	.	.
.	.	.	.	.	.	.	.	.	32C/	.	.	.	.	.	.
.	.	.	.	.	.	.	.	.	32C/	.	.	.	.	.	.
.	.	.	.	.	.	.	.	.	32C/	.	.	.	.	.	.
.	.	.	.	.	.	.	.	.	32C/	.	.	.	.	.	.
.	.	.	.	.	.	.	.	.	32C/	.	.	.	.	.	.
.	.	.	.	.	.	.	.	.	32C/	.	.	.	.	.	.
.	.	.	.	.	.	.	.	.	32C/	.	.	.	.	.	.
.	.	.	.	.	.	.	.	.	32C/	.	.	.	.	.	.
.	.	.	.	.	.	.	.	.	32C/	.	.	.	.	.	.
.	.	.	.	.	.	.	.	.	32C/	.	.	.	.	.	.
.	.	.	.	.	.	.	.	.	32C/	.	.	.	.	.	.
.	.	.	.	.	.	.	.	.	32C/	.	.	.	.	.	.
.	4F\	-mi-	4A\	-mi-	4c\	-mi-	4a\	-mi-	32C/	.	.	.	.	.	.
.	.	.	.	.	.	.	.	.	32C/	.	.	.	.	.	.
.	.	.	.	.	.	.	.	.	32C/	.	.	.	.	.	.
.	.	.	.	.	.	.	.	.	32C/	.	.	.	.	.	.
.	.	.	.	.	.	.	.	.	32C/	.	.	.	.	.	.
.	.	.	.	.	.	.	.	.	32C/	.	.	.	.	.	.
.	.	.	.	.	.	.	.	.	32C/	.	.	.	.	.	.
.	.	.	.	.	.	.	.	.	32C/JJJ	.	.	.	.	.	.
=59	=59	=59	=59	=59	=59	=59	=59	=59	=59	=59	=59	=59	=59	=59	=59
!	!	!	!LO:LB:g=original	!	!LO:LB:g=original	!	!	!	!	!	!	!	!	!	!
2E\	2E\	-nus	2c\	-nus	2c\	-nus	2g\	-nus	32C/LLL	1c]	1cc]	1ryy	2cc\)	2c/	2g\
.	.	.	.	.	.	.	.	.	32C/	.	.	.	.	.	.
.	.	.	.	.	.	.	.	.	32C/	.	.	.	.	.	.
.	.	.	.	.	.	.	.	.	32C/	.	.	.	.	.	.
.	.	.	.	.	.	.	.	.	32C/	.	.	.	.	.	.
.	.	.	.	.	.	.	.	.	32C/	.	.	.	.	.	.
.	.	.	.	.	.	.	.	.	32C/	.	.	.	.	.	.
.	.	.	.	.	.	.	.	.	32C/	.	.	.	.	.	.
.	.	.	.	.	.	.	.	.	32C/	.	.	.	.	.	.
.	.	.	.	.	.	.	.	.	32C/	.	.	.	.	.	.
.	.	.	.	.	.	.	.	.	32C/	.	.	.	.	.	.
.	.	.	.	.	.	.	.	.	32C/	.	.	.	.	.	.
.	.	.	.	.	.	.	.	.	32C/	.	.	.	.	.	.
.	.	.	.	.	.	.	.	.	32C/	.	.	.	.	.	.
.	.	.	.	.	.	.	.	.	32C/	.	.	.	.	.	.
.	.	.	.	.	.	.	.	.	32C/	.	.	.	.	.	.
2C\	2C\	et	2G\	et	2c\	et	2e\	et	32C/	.	.	.	2cc\	2c/	2g\
.	.	.	.	.	.	.	.	.	32C/	.	.	.	.	.	.
.	.	.	.	.	.	.	.	.	32C/	.	.	.	.	.	.
.	.	.	.	.	.	.	.	.	32C/	.	.	.	.	.	.
.	.	.	.	.	.	.	.	.	32C/	.	.	.	.	.	.
.	.	.	.	.	.	.	.	.	32C/	.	.	.	.	.	.
.	.	.	.	.	.	.	.	.	32C/	.	.	.	.	.	.
.	.	.	.	.	.	.	.	.	32C/	.	.	.	.	.	.
.	.	.	.	.	.	.	.	.	32C/	.	.	.	.	.	.
.	.	.	.	.	.	.	.	.	32C/	.	.	.	.	.	.
.	.	.	.	.	.	.	.	.	32C/	.	.	.	.	.	.
.	.	.	.	.	.	.	.	.	32C/	.	.	.	.	.	.
.	.	.	.	.	.	.	.	.	32C/	.	.	.	.	.	.
.	.	.	.	.	.	.	.	.	32C/	.	.	.	.	.	.
.	.	.	.	.	.	.	.	.	32C/	.	.	.	.	.	.
.	.	.	.	.	.	.	.	.	32C/JJJ	.	.	.	.	.	.
=60	=60	=60	=60	=60	=60	=60	=60	=60	=60	=60	=60	=60	=60	=60	=60
!	!	!	!	!	!	!	!	!	!	!LO:LB:g=original	!	!	!	!	!
4BB-/	2BB/	e-	2G\	e-	2d\	ero	2f\	ero	4GG/	4g/	4dd\	1ryy	4dd\	4f\	4g\
4r	.	.	.	.	.	.	.	.	4r	4r	4r	.	4r	4r	4r
4C/	2C/	-ro	2G\	-ro	2c\	.	2e\	.	4C/	4cc\	4ee\	.	4ee\	4e\	4g\
4r	.	.	.	.	.	.	.	.	4r	4r	4r	.	4r	4r	4r
=61	=61	=61	=61	=61	=61	=61	=61	=61	=61	=61	=61	=61	=61	=61	=61
*	*	*	*	*	*	*	*	*	*	*	*	*	*	*	*rep
!	!LO:TX:a:t=problem:skreślona sylaba "xil"	!	!	!	!	!	!	!	!	!	!	!	!LO:LB:g=original	!	!
4GG/	4GG/	il-	4G\	il-	4B\	il-	4d\	il-	4GG/	4g/	4dd\	1ryy	4dd\	4g\	4g\
4r	2G\	-lo-	2G\	-lo-	2B\	-lo-	2d\	-lo-	4r	4r	4r	.	4r	4r	4r
4GG/	.	.	.	.	.	.	.	.	4GG/	4g/	4dd\	.	4dd\	4g\	4g\
4r	4C/	-rum	4G\	-rum	4c\	-rum	4e\	-rum	4r	4r	4r	.	4r	4r	4r
*	*	*	*	*	*	*	*	*	*	*	*	*	*	*	*Xrep
=62	=62	=62	=62	=62	=62	=62	=62	=62	=62	=62	=62	=62	=62	=62	=62
!	!LO:LB:g=original	!	!	!	!	!	!	!	!	!	!	!	!	!	!
2.C/	2.C/	De-	1E	De-	2.c\	De-	1c	De-	32C/LLL	4e/	4cc\	1ryy	4cc\	4g\	4g\
.	.	.	.	.	.	.	.	.	32C/	.	.	.	.	.	.
.	.	.	.	.	.	.	.	.	32C/	.	.	.	.	.	.
.	.	.	.	.	.	.	.	.	32C/	.	.	.	.	.	.
.	.	.	.	.	.	.	.	.	32C/	.	.	.	.	.	.
.	.	.	.	.	.	.	.	.	32C/	.	.	.	.	.	.
.	.	.	.	.	.	.	.	.	32C/	.	.	.	.	.	.
.	.	.	.	.	.	.	.	.	32C/	.	.	.	.	.	.
.	.	.	.	.	.	.	.	.	32C/	8c/L	8cc\L	.	8cc\L	8c/L	8c/L
.	.	.	.	.	.	.	.	.	32C/	.	.	.	.	.	.
.	.	.	.	.	.	.	.	.	32C/	.	.	.	.	.	.
.	.	.	.	.	.	.	.	.	32C/	.	.	.	.	.	.
.	.	.	.	.	.	.	.	.	32C/	8c/J	8cc\J	.	8cc\J	8c/J	8c/J
.	.	.	.	.	.	.	.	.	32C/	.	.	.	.	.	.
.	.	.	.	.	.	.	.	.	32C/	.	.	.	.	.	.
.	.	.	.	.	.	.	.	.	32C/JJJ	.	.	.	.	.	.
.	.	.	.	.	.	.	.	.	4C/	4c/	4cc\	.	4cc\	4c/	4c/
4r	4GG#X/	.	.	.	4G#X/	.	.	.	4r	4r	4r	.	4r	4r	4r
=63	=63	=63	=63	=63	=63	=63	=63	=63	=63	=63	=63	=63	=63	=63	=63
!LO:TX:a:t=3.	!	!	!	!	!	!	!	!	!LO:TX:a:t=4.	!LO:TX:a:t=4.	!LO:TX:a:t=4.	!	!LO:TX:a:t=3.	!LO:TX:a:t=3.	!LO:TX:a:t=3.
0r	2AA/	-us	2E\	-us	2A\	-us	2.c\	.	00r	00r	00r	1ryy	0r	0r	0r
.	2r	.	2r	.	2r	.	.	.	.	.	.	.	.	.	.
.	.	.	.	.	.	.	4B\	-us	.	.	.	.	.	.	.
=64	=64	=64	=64	=64	=64	=64	=64	=64	=64	=64	=64	=64	=64	=64	=64
!	!	!	!	!	!LO:TX:a:t=V.S.	!	!	!	!	!	!	!	!	!	!
!	!LO:TX:a:t=1.	!	!LO:TX:a:t=1.	!	!LO:TX:a:t=1	!	!	!	!	!	!	!	!	!	!
.	1r	.	1r	.	1r	.	(4A\	in	.	.	.	1ryy	.	.	.
.	.	.	.	.	.	.	4B\)	.	.	.	.	.	.	.	.
.	.	.	.	.	.	.	(4c\	per-	.	.	.	.	.	.	.
.	.	.	.	.	.	.	4d\)	.	.	.	.	.	.	.	.
=65	=65	=65	=65	=65	=65	=65	=65	=65	=65	=65	=65	=65	=65	=65	=65
!	!	!	!	!	!LO:PB:g=original	!	!LO:LB:g=original	!	!	!	!	!	!	!	!
1r	4r	.	4r	.	4r	.	1e	-pe-	.	.	.	1ryy	1r	1r	1r
.	2GG/	in	2G\	in	2c\	in	.	.	.	.	.	.	.	.	.
.	4GG/	per	4G\	per-	4c\	per-	.	.	.	.	.	.	.	.	.
=66	=66	=66	=66	=66	=66	=66	=66	=66	=66	=66	=66	=66	=66	=66	=66
!	!	!	!	!	!	!	!	!	!	!LO:TX:a:t=V.S.	!LO:TX:a:t=V.S.	!	!	!LO:LB:g=original	!
4r	2GG/	tu-	2G\	-pe-	2c\	-tu-	1d	-tu-	.	.	.	1ryy	4r	4r	4r
4G\	.	.	.	.	.	.	.	.	.	.	.	.	4dd\	4g\	4g\
4r	2GG/	.	2G\	-tu-	2B\	.	.	.	.	.	.	.	4r	4r	4r
4G\	.	.	.	.	.	.	.	.	.	.	.	.	4dd\	4g\	4g\
=67	=67	=67	=67	=67	=67	=67	=67	=67	=67	=67	=67	=67	=67	=67	=67
*	*	*	*	*	*	*	*	*	*	*	*2\right	*	*	*	*
!LO:LB:g=original	!	!	!	!	!	!	!	!	!	!LO:PB:g=original	!LO:PB:g=original	!	!	!	!
2C/	2GG/ 2C	-um	2E\	-um	2c\	-um	2c\	-um	2r	2r	2r	1ryy	2cc\	2e\	2g\
2C/	2GG/ 2C	et	2C/ 2G	et	2c\	et	2e\	et	32C/LLL	2e/	2cc\	.	2cc\	2c/	2g\
.	.	.	.	.	.	.	.	.	32C/	.	.	.	.	.	.
.	.	.	.	.	.	.	.	.	32C/	.	.	.	.	.	.
.	.	.	.	.	.	.	.	.	32C/	.	.	.	.	.	.
.	.	.	.	.	.	.	.	.	32C/	.	.	.	.	.	.
.	.	.	.	.	.	.	.	.	32C/	.	.	.	.	.	.
.	.	.	.	.	.	.	.	.	32C/	.	.	.	.	.	.
.	.	.	.	.	.	.	.	.	32C/	.	.	.	.	.	.
.	.	.	.	.	.	.	.	.	32C/	.	.	.	.	.	.
.	.	.	.	.	.	.	.	.	32C/	.	.	.	.	.	.
.	.	.	.	.	.	.	.	.	32C/	.	.	.	.	.	.
.	.	.	.	.	.	.	.	.	32C/	.	.	.	.	.	.
.	.	.	.	.	.	.	.	.	32C/	.	.	.	.	.	.
.	.	.	.	.	.	.	.	.	32C/	.	.	.	.	.	.
.	.	.	.	.	.	.	.	.	32C/	.	.	.	.	.	.
.	.	.	.	.	.	.	.	.	32C/JJJ	.	.	.	.	.	.
=68	=68	=68	=68	=68	=68	=68	=68	=68	=68	=68	=68	=68	=68	=68	=68
!	!	!	!LO:LB:g=original	!	!	!	!	!	!	!	!	!	!	!	!
4BB-/	2BB/	er-	2G\	e-	2d\	er-	2f\	ero	4GG/	4g/	4dd\	1ryy	4dd\	4f\	4g\
4r	.	.	.	.	.	.	.	.	4r	4r	4r	.	4r	4r	4r
4C/	2C/	-o	2G\	-ro	2c\	-o	2e\	.	4C/	4cc\	4ee\	.	4ee\	4e\	4g\
4r	.	.	.	.	.	.	.	.	4r	4r	4r	.	4r	4r	4r
=69	=69	=69	=69	=69	=69	=69	=69	=69	=69	=69	=69	=69	=69	=69	=69
*	*	*	*	*	*	*	*	*	*	*	*	*	*	*	*rep
4GG/	4GG/	il-	4G\	il-	4B\	il-	4d\	il-	4GG/	4g/	4dd\	1ryy	4dd\	4g\	4g\
4r	2G\	-lo-	2G\	-lo-	2B\	-lo-	2d\	-lo-	4r	4r	4r	.	4r	4r	4r
4GG/	.	.	.	.	.	.	.	.	4GG/	4g/	4dd\	.	4dd\	4g\	4g\
4r	4C/	-rum	4G\	-rum	4c\	-rum	4e\	-rum	4r	4r	4r	.	4r	4r	4r
*	*	*	*	*	*	*	*	*	*	*	*	*	*	*	*Xrep
=70	=70	=70	=70	=70	=70	=70	=70	=70	=70	=70	=70	=70	=70	=70	=70
!	!	!	!	!	!	!	!	!	!LO:LB:g=original	!	!	!	!	!	!LO:LB:g=original
2.C/	2.C/	De-	1E	De-	2.c\	De-	(1c	De-	32C/LLL	4e/	4cc\	1ryy	4cc\	4e\	4g\
.	.	.	.	.	.	.	.	.	32C/	.	.	.	.	.	.
.	.	.	.	.	.	.	.	.	32C/	.	.	.	.	.	.
.	.	.	.	.	.	.	.	.	32C/	.	.	.	.	.	.
.	.	.	.	.	.	.	.	.	32C/	.	.	.	.	.	.
.	.	.	.	.	.	.	.	.	32C/	.	.	.	.	.	.
.	.	.	.	.	.	.	.	.	32C/	.	.	.	.	.	.
.	.	.	.	.	.	.	.	.	32C/	.	.	.	.	.	.
.	.	.	.	.	.	.	.	.	32C/	8c/L	8cc\L	.	8cc\L	8c/L	8c/L
.	.	.	.	.	.	.	.	.	32C/	.	.	.	.	.	.
.	.	.	.	.	.	.	.	.	32C/	.	.	.	.	.	.
.	.	.	.	.	.	.	.	.	32C/	.	.	.	.	.	.
.	.	.	.	.	.	.	.	.	32C/	8c/J	8cc\J	.	8cc\J	8c/J	8c/J
.	.	.	.	.	.	.	.	.	32C/	.	.	.	.	.	.
.	.	.	.	.	.	.	.	.	32C/	.	.	.	.	.	.
.	.	.	.	.	.	.	.	.	32C/JJJ	.	.	.	.	.	.
.	.	.	.	.	.	.	.	.	4C/	4c/	4cc\	.	4cc\	4c/	4c/
4r	4GG#X/	.	.	.	4G#X\	.	.	.	4r	4r	4r	.	4r	4r	4r
=71	=71||	=71	=71	=71	=71	=71	=71	=71	=71	=71	=71	=71	=71	=71	=71
!	!LO:LB:g=original	!	!	!	!	!	!	!	!	!	!	!	!LO:LB:g=original	!	!
!LO:TX:a:t=3.	!	!	!	!	!	!	!	!	!LO:TX:a:t=3.	!LO:TX:a:t=3.	!LO:TX:a:t=3.	!	!LO:TX:a:t=3.	!LO:TX:a:t=3.	!LO:TX:a:t=3.
0r	2AA/	-us	2E\	-us	2A\	-us	2.c\	.	0r	0r	0r	1ryy	0r	0r	0r
.	2r	.	2r	.	2r	.	.	.	.	.	.	.	.	.	.
.	.	.	.	.	.	.	4B\)	-us	.	.	.	.	.	.	.
=72	=72	=72	=72	=72	=72	=72	=72	=72	=72	=72	=72	=72	=72	=72	=72
!	!LO:TX:a:t=1	!	!LO:TX:a:t=1.	!	!LO:TX:a:t=1.	!	!	!	!	!	!	!	!	!	!
.	1r	.	1r	.	1r	.	(4A\	in	.	.	.	1ryy	.	.	.
.	.	.	.	.	.	.	4B\)	.	.	.	.	.	.	.	.
.	.	.	.	.	.	.	(4c\	per-	.	.	.	.	.	.	.
.	.	.	.	.	.	.	4d\)	.	.	.	.	.	.	.	.
=73	=73	=73	=73	=73	=73	=73	=73	=73	=73	=73	=73	=73	=73	=73	=73
1r	4r	.	4r	.	4r	.	1e	-pe-	1r	1r	1r	1ryy	1r	1r	1r
.	2GG/	in	2G\	in	2c\	in	.	.	.	.	.	.	.	.	.
.	4GG/	per-	4G\	per-	4c\	per-	.	.	.	.	.	.	.	.	.
=74	=74	=74	=74	=74	=74	=74	=74	=74	=74	=74	=74	=74	=74	=74	=74
!	!	!	!	!	!LO:LB:g=original	!	!	!	!	!	!	!	!	!	!
4r	2GG/	-pe-	2G\	-pe-	2c\	-pe-	1d	-tu-	2r	2r	2r	1ryy	4r	4r	4r
4G\	.	.	.	.	.	.	.	.	.	.	.	.	4dd\	4g\	4g\
4r	2GG/	-tu-	2G\	-tu-	2B\	-tu-	.	.	4r	4r	4r	.	4r	4r	4r
4G\	.	.	.	.	.	.	.	.	4GG/	4g/	4dd\	.	4dd\	4g\	4g\
=75	=75	=75	=75	=75	=75	=75	=75	=75	=75	=75	=75	=75	=75	=75	=75
4C/	2C/	-um	2G\	-um	2c\	-um	2c\	-um	4C/	4e/	4cc\	1ryy	4cc\	4e\	4g\
!	!	!	!	!	!	!	!	!	!	!	!	!	!	!	!
4C/	.	.	.	.	.	.	.	.	32C/LLL	4c/	4cc\	.	4cc\	4c/	4c/
.	.	.	.	.	.	.	.	.	32C/	.	.	.	.	.	.
.	.	.	.	.	.	.	.	.	32C/	.	.	.	.	.	.
.	.	.	.	.	.	.	.	.	32C/	.	.	.	.	.	.
.	.	.	.	.	.	.	.	.	32C/	.	.	.	.	.	.
.	.	.	.	.	.	.	.	.	32C/	.	.	.	.	.	.
.	.	.	.	.	.	.	.	.	32C/	.	.	.	.	.	.
.	.	.	.	.	.	.	.	.	32C/	.	.	.	.	.	.
4C/	2r	.	2C/	al-	2r	.	2e\	Al-	32C/	4c/	4cc\	.	4cc\	4c/	4c/
.	.	.	.	.	.	.	.	.	32C/	.	.	.	.	.	.
.	.	.	.	.	.	.	.	.	32C/	.	.	.	.	.	.
.	.	.	.	.	.	.	.	.	32C/	.	.	.	.	.	.
.	.	.	.	.	.	.	.	.	32C/	.	.	.	.	.	.
.	.	.	.	.	.	.	.	.	32C/	.	.	.	.	.	.
.	.	.	.	.	.	.	.	.	32C/	.	.	.	.	.	.
.	.	.	.	.	.	.	.	.	32C/JJJ	.	.	.	.	.	.
4C/	.	.	.	.	.	.	.	.	4C/	4c/	4cc\	.	4cc\	4c/	4c/
=76	=76	=76	=76	=76	=76	=76	=76	=76	=76	=76	=76	=76	=76	=76	=76
4C/	4r	.	2C/	-le-	4r	.	2e\	-le-	4C/	4c/	4cc\	1ryy	4cc\	4c/	4c/
4r	4C/	al-	.	.	4e\	a-	.	.	4r	4r	4r	.	4r	4r	4r
2r	4BB/	.	2D/	-lu-	4d\	-le-	2f\	.	2r	2r	2r	.	2r	2r	2r
.	4AA/	-le-	.	.	4c\	.	.	.	.	.	.	.	.	.	.
=77	=77	=77	=77	=77	=77	=77	=77	=77	=77	=77	=77	=77	=77	=77	=77
!	!	!	!LO:LB:g=original	!	!	!	!LO:LB:g=original	!	!	!	!	!	!	!LO:LB:g=original	!
!LO:TX:a:t=1	!	!	!	!	!	!	!	!	!LO:TX:a:t=1	!LO:TX:a:t=1.	!LO:TX:a:t=1.	!	!LO:TX:a:t=1.	!LO:TX:a:t=1.	!LO:TX:a:t=1
1r	4GG/	-ju-	2E\	-ja	4B\	.	2g\	.	1r	1r	1r	1ryy	1r	1r	1r
.	8AA/L	.	.	.	8c\L	.	.	.	.	.	.	.	.	.	.
.	8BB/J	.	.	.	8d\J	.	.	.	.	.	.	.	.	.	.
.	2C/	.	2C\	al-	[2e\	.	2e\	.	.	.	.	.	.	.	.
=78	=78||	=78	=78	=78	=78	=78	=78	=78	=78	=78	=78	=78	=78	=78	=78
!	!LO:PB:g=original	!	!	!	!	!	!	!	!	!LO:LB:g=original	!	!	!	!	!
2r	4C/	-lu-	1D	-le-	4e\]	.	1f	-lu-	2r	2r	2r	1ryy	2r	2r	2r
.	4BB/	.	.	.	4d\	.	.	.	.	.	.	.	.	.	.
4GG/	4GG/	.	.	.	4B\	.	.	.	4GG/	4g/	4dd\	.	4dd\	4f\	4g\
4r	8AA/L	.	.	.	8c\L	.	.	.	4r	4r	4r	.	4r	4r	4r
.	8BB/J	.	.	.	8d\J	-lu-	.	.	.	.	.	.	.	.	.
=79	=79	=79	=79	=79	=79	=79	=79	=79	=79	=79	=79	=79	=79	=79	=79
!LO:LB:g=original	!	!	!	!	!	!	!	!	!	!	!LO:LB:g=original	!	!	!	!
4r	2C/	-ja	2C/	-lu-	2e\	-ja	2e\	-ja	4r	4r	4r	1ryy	4r	4r	4r
!	!	!	!	!	!	!	!	!	!	!	!	!	!	!LO:TX:a:t=problem:nieprecyzyjny zapis wysokości	!
4C/	.	.	.	.	.	.	.	.	32C/LLL	4c/	4cc\	.	4cc\	4c/	4c/
.	.	.	.	.	.	.	.	.	32C/	.	.	.	.	.	.
.	.	.	.	.	.	.	.	.	32C/	.	.	.	.	.	.
.	.	.	.	.	.	.	.	.	32C/	.	.	.	.	.	.
.	.	.	.	.	.	.	.	.	32C/	.	.	.	.	.	.
.	.	.	.	.	.	.	.	.	32C/	.	.	.	.	.	.
.	.	.	.	.	.	.	.	.	32C/	.	.	.	.	.	.
.	.	.	.	.	.	.	.	.	32C/	.	.	.	.	.	.
4C/	2r	.	2C/	-ja	2r	.	[2e\	al-	32C/	4c/	4cc\	.	4cc\	4c/	4c/
.	.	.	.	.	.	.	.	.	32C/	.	.	.	.	.	.
.	.	.	.	.	.	.	.	.	32C/	.	.	.	.	.	.
.	.	.	.	.	.	.	.	.	32C/	.	.	.	.	.	.
.	.	.	.	.	.	.	.	.	32C/	.	.	.	.	.	.
.	.	.	.	.	.	.	.	.	32C/	.	.	.	.	.	.
.	.	.	.	.	.	.	.	.	32C/	.	.	.	.	.	.
.	.	.	.	.	.	.	.	.	32C/JJJ	.	.	.	.	.	.
4C/	.	.	.	.	.	.	.	.	4C/	4c/	4cc\	.	4cc\	4c/	4c/
=80	=80	=80	=80	=80	=80	=80	=80	=80	=80	=80	=80	=80	=80	=80	=80
4C/	4r	.	2C/	a-	4r	.	2e\]	.	4C/	4c/	4cc\	1ryy	4cc\	4c/	4c/
4r	4C/	al-	.	.	4e\	a-	.	.	4r	4r	4r	.	4r	4r	4r
2r	4BB/	-le-	2D/	.	4d\	-le-	2f\	.	2r	2r	2r	.	2r	2r	2r
.	4AA/	-lu-	.	.	4c\	.	.	.	.	.	.	.	.	.	.
=81	=81	=81	=81	=81	=81	=81	=81	=81	=81	=81	=81	=81	=81	=81	=81
!	!	!	!	!	!	!	!	!	!LO:TX:a:t=V.S.	!	!	!	!	!	!
!LO:TX:a:t=1	!	!	!	!	!	!	!	!	!LO:TX:a:t=1.	!LO:TX:a:t=1.	!LO:TX:a:t=1.	!	!	!LO:TX:a:t=1	!LO:TX:a:t=1
1r	4GG/	.	2E\	.	4B\	.	2g\	.	1r	1r	1r	1ryy	1r	1r	1r
.	8AA/L	.	.	.	8c\L	.	.	.	.	.	.	.	.	.	.
.	8BB/J	.	.	.	8d\J	.	.	.	.	.	.	.	.	.	.
.	[2C/	.	2C\	-le-	[2e\	.	2e\	-le-	.	.	.	.	.	.	.
=82	=82	=82	=82	=82	=82	=82	=82	=82	=82	=82	=82	=82	=82	=82	=82
!	!	!	!	!	!LO:LB:g=original	!	!	!	!LO:PB:g=original	!	!	!	!	!	!
!	!	!	!	!	!	!	!	!	!LO:TX:a:t=problem:od tego taktu brak skanu	!	!	!	!	!	!LO:LB:g=original
2r	4C/]	.	1D	-lu-	4e\]	.	1f	-lu-	1ryy	2r	2r	1ryy	2r	2r	2r
.	4BB/	.	.	.	4d\	.	.	.	.	.	.	.	.	.	.
4GG/	4GG/	.	.	.	4B\	.	.	.	.	4g/	4dd\	.	4dd\	4f\	4g\
4r	8AA/L	.	.	.	8c\L	.	.	.	.	4r	4r	.	4r	4r	4r
.	8BB/J	.	.	.	8d\J	-lu-	.	.	.	.	.	.	.	.	.
=83	=83	=83	=83	=83	=83	=83	=83	=83	=83	=83	=83	=83	=83	=83	=83
!	!	!	!	!	!	!	!	!	!	!	!	!	!LO:LB:g=original	!	!
4r	2C/	-ja	2C/	-ja	2c\	-ja	2e\	-ja	1ryy	4r	4r	1ryy	4r	4r	4r
4C\	.	.	.	.	.	.	.	.	.	4e/	4cc\	.	4ee\	4c/	4g\
!LO:TX:a:t=problem:laska nuty c z lewej strony	!	!	!	!	!	!	!	!	!	!	!	!	!	!	!
4c\	4r	.	[2A\	a-	[2c\	a-	2e\	al-	.	4e/	4cc\	.	4ee\	4c/	4g\
4A\	4A\	al-	.	.	.	.	.	.	.	4e/	4cc\	.	4ee\	4A/	4a\
=84	=84	=84	=84	=84	=84	=84	=84	=84	=84	=84	=84	=84	=84	=84	=84
2F\	2F\	-le-	2A\]	.	4c\]	.	2.d\	-le-	1ryy	2r	2r	1ryy	1dd	2f\	2a\
.	.	.	.	.	8B\L	.	.	.	.	.	.	.	.	.	.
.	.	.	.	.	8A\J	-le-	.	.	.	.	.	.	.	.	.
2G\	2G\	-lu-	2G\	.	2B\	-lu-	.	.	.	4r	4r	.	.	2f\	2g\
.	.	.	.	.	.	.	4d\	-lu-	.	4g/	4dd\	.	.	.	.
=85	=85	=85	=85	=85	=85	=85	=85	=85	=85	=85	=85	=85	=85	=85	=85
4r	2C/	-ja	2G\	.	2c\	-ja	2e\	-ja	1ryy	4r	4r	1ryy	4ee\	4e\	4g\
4C\	.	.	.	.	.	.	.	.	.	4e/	4cc\	.	4ee\	4c/	4g\
!LO:TX:a:t=problem:laska nuty c z lewej strony	!	!	!	!	!	!	!	!	!	!	!	!	!	!	!
4c\	4r	.	[2A\	.	[2c\	a-	2e\	al-	.	4e/	4cc\	.	4ee\	4c/	4g\
4A\	4A\	al-	.	.	.	.	.	.	.	4e/	4cc\	.	4ee\	4A/	4a\
=86	=86	=86	=86	=86	=86	=86	=86	=86	=86	=86	=86	=86	=86	=86	=86
!	!	!	!LO:LB:g=original	!	!	!	!	!	!	!	!	!	!	!	!
2F\	2F\	-le-	2A\]	.	4c\]	-le-	2.d\	-le-	1ryy	2r	2r	1ryy	1dd	2f\	2a\
.	.	.	.	.	8B\L	.	.	.	.	.	.	.	.	.	.
.	.	.	.	.	8A\J	.	.	.	.	.	.	.	.	.	.
2G\	2G\	-lu-	2G\	.	2B\	-lu-	.	.	.	4r	4r	.	.	2f\	2g\
.	.	.	.	.	.	.	4d\	-lu-	.	4g/	4dd\	.	.	.	.
=87	=87||	=87	=87	=87	=87	=87	=87	=87	=87	=87	=87	=87	=87	=87	=87
!	!LO:LB:g=original	!	!	!	!	!	!LO:LB:g=original	!	!	!LO:LB:g=original	!	!	!	!	!
[>1C	2C/	-ja	2G\	.	2c\	-ja	2c\	-ja	1ryy	1e	1cc	1ryy	[1cc	1e	[1g
.	4C/	al-	4G\	.	4c\	al-	4e\	al-	.	.	.	.	.	.	.
.	4C/	-le-	4G\	-lu-	4c\	-le-	4e\	-le-	.	.	.	.	.	.	.
=88	=88	=88	=88	=88	=88	=88	=88	=88	=88	=88	=88	=88	=88	=88	=88
!	!	!	!	!	!	!	!	!	!	!	!LO:LB:g=original	!	!	!LO:LB:g=original	!
4C\]	1C	-lu-	1G	-lu-	1c	-lu-	1e	-lu-	1ryy	4e/	4cc\	1ryy	4cc\]	4e\	4g\]
!LO:TX:a:t=problem:laska nuty c z lewej strony	!	!	!	!	!	!	!	!	!	!	!	!	!	!	!
4c\	.	.	.	.	.	.	.	.	.	4e/	4cc\	.	4cc\	4e\	4g\
4G\	.	.	.	.	.	.	.	.	.	4g/	4g/	.	4cc\	4e\	4g\
4E\	.	.	.	.	.	.	.	.	.	4e/	4e/	.	4cc\	4e\	4g\
=89	=89	=89	=89	=89	=89	=89	=89	=89	=89	=89	=89	=89	=89	=89	=89
2.C/	2.C/	-ja	2.G\	-ja	2.c\	-ja	2.e\	-ja	1ryy	2.c/	2.c/	1ryy	2.cc\	2.e\	2.g\
4r	4r	.	4r	.	4r	.	4r	.	.	4r	4r	.	4r	4r	4r
==	==	==	==	==	==	==	==	==	==	==	==	==	==	==	==
*-	*-	*-	*-	*-	*-	*-	*-	*-	*-	*-	*-	*-	*-	*-	*-
!!!system-decoration: [(g1)]g2[(g3)]g4
!!!RDF**kern: <= below
!!!RDF**kern: >= above
